X: 36255
T: Seal Hunter's Fling, The
R: strathspey
M: 4/4
K: Gmajor
|:A|B2 BG AGEF|G2 Bd edgd|B2 BG AGEA|1 GABG (3ABA G:|2 GABG (3ABA G2||
G2 Bd edgd|B2 BG AG E2|G2 Bd edgd|1 BBBG (3ABA G2:|2 B2 BG (3ABA G||

